atari2600/header.svg

<?xml version="1.0" encoding="UTF-8" standalone="no"?>
<!-- Generator: Adobe Illustrator 25.1.0, SVG Export Plug-In . SVG Version: 6.00 Build 0)  -->

<svg
   version="1.1"
   id="Layer_1"
   x="0px"
   y="0px"
   viewBox="0 0 3840 832.7"
   style="enable-background:new 0 0 3840 832.7;"
   xml:space="preserve"
   sodipodi:docname="header.svg"
   inkscape:version="1.3.2 (091e20e, 2023-11-25)"
   xmlns:inkscape="http://www.inkscape.org/namespaces/inkscape"
   xmlns:sodipodi="http://sodipodi.sourceforge.net/DTD/sodipodi-0.dtd"
   xmlns="http://www.w3.org/2000/svg"
   xmlns:svg="http://www.w3.org/2000/svg"><defs
   id="defs13">
	
	

		
		
		
		
	
		
	
			
			
			
			
			
			
		
				
				
				
			</defs><sodipodi:namedview
   id="namedview13"
   pagecolor="#ffffff"
   bordercolor="#000000"
   borderopacity="0.25"
   inkscape:showpageshadow="2"
   inkscape:pageopacity="0.0"
   inkscape:pagecheckerboard="0"
   inkscape:deskcolor="#d1d1d1"
   inkscape:zoom="0.21510417"
   inkscape:cx="1917.6755"
   inkscape:cy="418.40194"
   inkscape:window-width="1760"
   inkscape:window-height="881"
   inkscape:window-x="0"
   inkscape:window-y="44"
   inkscape:window-maximized="0"
   inkscape:current-layer="Layer_1" />
<style
   type="text/css"
   id="style1">
	.st0{fill:#E4202F;}
	.st1{fill:url(#SVGID_1_);}
	.st2{fill:#FFFFFF;}
</style>
<path
   d="m 3726.5996,0 c -61.9998,0 -113.4004,48.700524 -113.4004,114.90039 0,60.79988 45.2014,114.59961 115.2012,114.59961 h 0.2988 C 3787.0992,229.5 3840,182.19908 3840,115.19922 3840,48.399352 3788.5994,0 3726.5996,0 Z M 2401.0801,2.390625 c -31.9547,-0.5719227 -64.0996,14.84146 -82.3809,41.410156 -14.1,18.799962 -16.9988,42.899653 -24.2988,64.599609 -69.9998,241.39952 -140.301,482.6997 -209.8008,724.19922 h 128.7012 c 19.9,-69.49986 40.4984,-138.90053 60.3984,-208.40039 83.3998,-0.2 166.7018,-0.0996 250.1016,-0.0996 20.3,69.49986 40.1988,139.00014 60.2988,208.5 43.2,-0.2 86.5012,0.10078 129.7012,-0.19922 C 2640.701,580.80089 2567.299,329.29872 2494.1992,77.699219 2484.8992,43.699287 2458.1,13.500375 2423,5.4003906 2415.8188,3.5066444 2408.4542,2.5226072 2401.0801,2.390625 Z M 1485.1035,2.5957031 C 1456.1403,2.8391597 1427.1125,15.225437 1409,38.400391 1390.8,58.900349 1387.7004,87.00005 1379.4004,112 c -69.8998,240.09952 -139.5002,480.30048 -209,720.5 42.9998,0.1 86.0004,-3.9e-4 128.9004,0.0996 C 1319.4008,762.99975 1339.6,693.49986 1360,624 c 83.4998,0.1 167.0002,-0.10039 250.5,0.0996 20.1,69.39986 40.0004,139.00053 60.4004,208.40039 43.1998,-0.1 86.3996,0 129.5996,0 -73.0998,-251.7995 -146.601,-503.39972 -219.8008,-755.199219 -5.8,-20.19996 -17.0988,-39.00159 -33.2988,-52.601562 C 1530.1192,9.5617488 1507.6305,2.406348 1485.1035,2.5957031 Z M 431.40039,4.0996094 c -20.89996,0.1 -41.90082,-3.905e-4 -62.80078,0.099609 C 368.49961,28.59917 368.7,53.000049 368.5,77.5 c -1.6,72.09986 -6.10041,144.29975 -16.90039,215.59961 -8.59998,56.09988 -21.30043,112.1001 -44.90039,164 C 286.59926,502.19951 260.19994,544.70047 227,581.40039 194.90006,616.90033 156.7007,647.10004 114.30078,669.5 78.600854,688.29996 40.099529,702.50002 0.09960937,708.5 V 832.30078 C 33.299543,827.7008 65.999281,819.20076 97.699219,808.30078 153.7991,789.00082 207.10088,760.29992 251.80078,721 301.80068,678.50008 346.20006,628.09988 374.5,568.5 c 17.29996,-36.99992 31.30002,-75.90086 38,-116.30078 9.79998,-58.49988 13.50078,-117.89934 16.30078,-177.19922 1.6,-40.99992 2.79961,-82.0993 2.59961,-123.19922 0,-49.2999 0.1,-98.501269 0,-147.7011706 z m 1272.29881,0 V 130.5 c 57.5,0 115.0002,-0.1 172.5,0 v 702 h 123.6016 v -702 c 57.4998,-0.1 115,0 172.5,0 V 4.0996094 Z m 1184.4004,0 C 2875.5996,3.79961 2862.9,5.2007895 2851,9.3007813 c -40.3,12.8999737 -70.5,52.8996947 -71,95.5996087 0.2,242.59952 -4e-4,485.19931 0.1,727.79883 41.5,0 83.0002,-0.1 124.5,0 0.2,-225.29956 -0.1004,-450.70007 0.1,-676.09961 -0.2,-14.59998 13.4008,-27.09883 27.8008,-26.79883 31.9,-0.2 63.7994,0.0984 95.6992,-0.10156 46.1,-1.5 89.8012,33.80166 99.7012,78.60156 8.5,34.49994 9.4992,73.50006 -9.3008,105 -24.6,41.99992 -68.5,68.59965 -113,85.59961 -23.3,8.99998 -44.3,26.50004 -53,50.5 -11.2,31.19994 -6.1004,67.39889 12.5996,94.79883 63.7,96.0998 126.901,192.60176 190.8008,288.60156 48.9,-0.2 97.7,-0.002 146.5,-0.10156 -66.7998,-99.9998 -134.6998,-199.39903 -200.0996,-300.29883 -6.9,-13.99998 -6.2004,-33.7008 7.0996,-43.80078 24.3,-17.89996 52.4,-30.19887 75,-50.29883 42.8,-36.89992 66.2,-92.6009 70.5,-148.30078 6.3,-53.1999 3.8004,-109.59971 -21.0996,-158.09961 -35.9,-74.69985 -115.1002,-126.2011742 -198,-127.7011713 -49.3,-0.1 -98.5008,0.1003903 -147.8008,-0.099609 z m 479.8008,0 V 832.59961 c 43.5998,0 87.3004,-0.1 130.9004,0 0.2,-276.19944 0.1,-552.30056 0.1,-828.5000006 z M 572.30078,4.1992187 c -38.49992,0.1 -77.10164,-0.098437 -115.60156,0.1015625 0.1,187.9996188 0,376.0999888 0,564.0996088 0.1,87.99982 -0.29883,176.09979 0.20117,264.09961 38.49992,-0.3 77.00047,3.9e-4 115.40039,-0.0996 z m 25.69922,0 C 598,49.399129 597.99961,94.70009 598.09961,140 c -0.6,79.99984 2.20041,159.99938 9.40039,239.69922 3.7,36.89992 7.80002,73.90086 17.5,109.80078 10.49998,35.59992 24.00043,70.60006 42.40039,103 23.49996,41.59992 54.90047,78.29967 89.90039,110.59961 C 778.50074,722.59957 800.70004,741.30004 825,757 c 33.29994,21.69996 69.59969,38.59963 107.09961,51.59961 31.49994,10.69998 63.90045,19.20119 96.90039,23.70117 V 708.5 C 1012.2,706 995.69996,702.00078 979.5,696.80078 921.60012,678.20082 868.3007,645.99992 824.30078,604 c -46.0999,-43.79992 -81.50004,-98.3009 -106,-156.80078 C 692.40084,386.69934 680.79959,321.30066 672.59961,256.30078 662.59963,172.70094 659.70039,88.399051 660.40039,4.1992187 c -20.79996,-0.1 -41.60043,0 -62.40039,0 z M 3726.9004,44 c 36,0 74.4004,26.000872 74.4004,70.30078 0,42.59992 -34.8012,71.19922 -74.7012,71.19922 h -0.2988 c -38.4,0 -74.4004,-27.20047 -74.4004,-70.90039 0,-44.599912 38.4,-70.59961 75,-70.59961 z M 2398.8008,192.19922 c 30,104.59978 60.4996,209.10098 90.5996,313.80078 -60.3998,0 -120.901,0.1 -181.3008,0 30.1,-104.6998 60.6012,-209.201 90.7012,-313.80078 z m -913.6016,0.5 c 30.4,104.39978 60.6004,208.80098 90.9004,313.30078 -60.5998,0 -121.3002,0.20039 -182,-0.0996 30.5,-104.39978 60.4996,-208.90139 91.0996,-313.20117 z m 2241.4004,58.60156 c -61.9998,0 -113.4004,48.69856 -113.4004,114.89844 0,60.79988 45.2014,114.60156 115.2012,114.60156 h 0.2988 c 58.4,0 111.3008,-47.30092 111.3008,-114.30078 0,-66.69986 -51.4006,-115.19922 -113.4004,-115.19922 z m 0.3008,44 c 36,0 74.4004,25.99891 74.4004,70.29883 0,42.59992 -34.8012,71.20117 -74.7012,71.20117 h -0.2988 c -38.4,0 -74.4004,-27.20047 -74.4004,-70.90039 0,-44.5999 38.4,-70.59961 75,-70.59961 z m 31.9004,203 c -48.1,0 -73.8008,35.9985 -73.8008,69.39844 0,6.79998 1.9992,15.00039 3.1992,17.40039 -4.7,-3.3 -8.8988,-6.5 -13.2988,-9.5 l -57.5996,-41 h -0.1016 v 50.80078 l 83.9004,57.29883 c 16,10.29998 34.5996,19.80078 57.5996,19.80078 16.6,0 37.8004,-5.0008 52.9004,-18.30078 18.1,-13.89998 28.4004,-37.4985 28.4004,-64.39844 0,-44.8999 -33.9994,-81.5 -81.1992,-81.5 z m 3.7988,43.89844 c 21.9,0 38.7012,17.10004 38.7012,39 0,20.09996 -15.4012,37.80078 -38.7012,37.80078 h -0.2988 c -23.9,0 -38.7012,-18.59965 -38.7012,-38.09961 0,-22.19996 17.1,-38.70117 39,-38.70117 z M 3798.5,683.09961 v 88.30078 c -16.8,-17.49996 -33.4004,-34.90004 -49.9004,-52 -24.5,-25.69994 -42.5004,-34.90117 -67.9004,-35.20117 -35.9998,0 -67.5996,26.00088 -67.5996,71.80078 0,15.59996 4.7012,43.99965 29.2012,61.09961 16.2,12.19998 34.2996,14.80039 51.0996,15.40039 v -42.19922 c -22.4,-0.3 -41.5996,-9.10043 -41.5996,-30.40039 0,-17.99996 11.1988,-31.59961 32.7988,-31.59961 25.1,0.3 40.2004,17.69965 59.4004,39.59961 19.2,21.29996 38.1008,42.49887 57.3008,63.79883 h 34.3984 V 683.09961 Z"
   style="fill:#e4202f"
   id="path14" />
</svg>

<?xml version="1.0" encoding="UTF-8" standalone="no"?>
<!-- Generator: Adobe Illustrator 25.1.0, SVG Export Plug-In . SVG Version: 6.00 Build 0)  -->

<svg
   version="1.1"
   id="Layer_1"
   x="0px"
   y="0px"
   viewBox="0 0 3840 832.7"
   style="enable-background:new 0 0 3840 832.7;"
   xml:space="preserve"
   sodipodi:docname="header.svg"
   inkscape:version="1.3.2 (091e20e, 2023-11-25)"
   xmlns:inkscape="http://www.inkscape.org/namespaces/inkscape"
   xmlns:sodipodi="http://sodipodi.sourceforge.net/DTD/sodipodi-0.dtd"
   xmlns="http://www.w3.org/2000/svg"
   xmlns:svg="http://www.w3.org/2000/svg"><defs
   id="defs13">
	
	

		
		
		
		
	
		
	
			
			
			
			
			
			
		
				
				
				
			</defs><sodipodi:namedview
   id="namedview13"
   pagecolor="#ffffff"
   bordercolor="#000000"
   borderopacity="0.25"
   inkscape:showpageshadow="2"
   inkscape:pageopacity="0.0"
   inkscape:pagecheckerboard="0"
   inkscape:deskcolor="#d1d1d1"
   inkscape:zoom="0.21510417"
   inkscape:cx="1917.6755"
   inkscape:cy="418.40194"
   inkscape:window-width="1760"
   inkscape:window-height="881"
   inkscape:window-x="0"
   inkscape:window-y="44"
   inkscape:window-maximized="0"
   inkscape:current-layer="Layer_1" />
<style
   type="text/css"
   id="style1">
	.st0{fill:#E4202F;}
	.st1{fill:url(#SVGID_1_);}
	.st2{fill:#FFFFFF;}
</style>
<g
   id="g13"><path
     id="path1"
     class="st0"
     d="M 3726.5996 0 C 3664.5997 1.8947787e-14 3613.1992 48.700457 3613.1992 114.90039 C 3613.1992 175.70033 3658.4005 229.5 3728.4004 229.5 L 3728.6992 229.5 C 3787.0992 229.5 3840 182.19915 3840 115.19922 C 3840 48.399286 3788.5995 0 3726.5996 0 z M 2401.0801 2.390625 C 2369.1254 1.8187017 2336.9805 17.232058 2318.6992 43.800781 C 2304.5992 62.600762 2301.7004 86.700412 2294.4004 108.40039 C 2224.4005 349.80015 2154.0995 591.09985 2084.5996 832.59961 L 2213.3008 832.59961 C 2233.2008 763.09968 2253.7992 693.69915 2273.6992 624.19922 C 2357.0991 623.99922 2440.4009 624.09961 2523.8008 624.09961 C 2544.1008 693.59954 2563.9996 763.09968 2584.0996 832.59961 C 2627.2996 832.39961 2670.6008 832.70039 2713.8008 832.40039 C 2640.7009 580.80064 2567.2991 329.29897 2494.1992 77.699219 C 2484.8992 43.699253 2458.1 13.500383 2423 5.4003906 C 2415.8188 3.5066425 2408.4542 2.5226073 2401.0801 2.390625 z M 1485.1035 2.5957031 C 1456.1403 2.8391599 1427.1125 15.225414 1409 38.400391 C 1390.8 58.90037 1387.7004 87.000025 1379.4004 112 C 1309.5005 352.09976 1239.9003 592.30024 1170.4004 832.5 C 1213.4003 832.6 1256.4008 832.49961 1299.3008 832.59961 C 1319.4008 762.99968 1339.6 693.49993 1360 624 C 1443.4999 624.1 1527.0001 623.89961 1610.5 624.09961 C 1630.6 693.49954 1650.5004 763.10007 1670.9004 832.5 C 1714.1003 832.4 1757.3 832.5 1800.5 832.5 C 1727.4001 580.70025 1653.8991 329.10053 1580.6992 77.300781 C 1574.8992 57.100801 1563.6004 38.299205 1547.4004 24.699219 C 1530.1192 9.5617339 1507.6305 2.4063478 1485.1035 2.5957031 z M 431.40039 4.0996094 C 410.50041 4.1996093 389.49959 4.0992189 368.59961 4.1992188 C 368.49961 28.599194 368.7 53.000025 368.5 77.5 C 366.9 149.59993 362.3996 221.79968 351.59961 293.09961 C 342.99962 349.19955 330.2992 405.19966 306.69922 457.09961 C 286.59924 502.19956 260.19997 544.70043 227 581.40039 C 194.90003 616.90036 156.70074 647.10002 114.30078 669.5 C 78.600817 688.29998 40.099569 702.50001 0.099609375 708.5 L 0.099609375 832.30078 C 33.299576 827.70079 65.99925 819.20077 97.699219 808.30078 C 153.79916 789.0008 207.10083 760.29996 251.80078 721 C 301.80073 678.50004 346.20003 628.09994 374.5 568.5 C 391.79998 531.50004 405.80001 492.59918 412.5 452.19922 C 422.29999 393.69928 426.00078 334.29994 428.80078 275 C 430.40078 234.00004 431.60039 192.90074 431.40039 151.80078 C 431.40039 102.50083 431.50039 53.29956 431.40039 4.0996094 z M 1703.6992 4.0996094 L 1703.6992 130.5 C 1761.1992 130.5 1818.6993 130.4 1876.1992 130.5 L 1876.1992 832.5 L 1999.8008 832.5 L 1999.8008 130.5 C 2057.3007 130.4 2114.8008 130.5 2172.3008 130.5 L 2172.3008 4.0996094 L 1703.6992 4.0996094 z M 2888.0996 4.0996094 C 2875.5996 3.7996097 2862.9 5.2007854 2851 9.3007812 C 2810.7 22.200768 2780.5 62.200433 2780 104.90039 C 2780.2 347.50015 2779.9996 590.09946 2780.0996 832.69922 C 2821.5996 832.69922 2863.0997 832.59922 2904.5996 832.69922 C 2904.7996 607.39944 2904.4992 381.99938 2904.6992 156.59961 C 2904.4992 141.99962 2918.1 129.50078 2932.5 129.80078 C 2964.4 129.60078 2996.2993 129.89922 3028.1992 129.69922 C 3074.2992 128.19922 3118.0004 163.50083 3127.9004 208.30078 C 3136.4004 242.80075 3137.3996 281.80081 3118.5996 313.30078 C 3093.9996 355.30074 3050.0996 381.90041 3005.5996 398.90039 C 2982.2996 407.90038 2961.2996 425.40041 2952.5996 449.40039 C 2941.3996 480.60036 2946.4992 516.79925 2965.1992 544.19922 C 3028.8992 640.29912 3092.1001 736.80088 3156 832.80078 C 3204.9 832.60078 3253.7 832.79922 3302.5 832.69922 C 3235.7001 732.69932 3167.8003 633.30029 3102.4004 532.40039 C 3095.5004 518.4004 3096.2 498.6996 3109.5 488.59961 C 3133.8 470.69963 3161.9 458.40076 3184.5 438.30078 C 3227.3 401.40082 3250.7 345.69994 3255 290 C 3261.3 236.80005 3258.8004 180.40034 3233.9004 131.90039 C 3198.0004 57.200465 3118.8003 5.6992173 3035.9004 4.1992188 C 2986.6004 4.0992188 2937.3996 4.2996092 2888.0996 4.0996094 z M 3367.9004 4.0996094 L 3367.9004 832.59961 C 3411.5003 832.59961 3455.2008 832.49961 3498.8008 832.59961 C 3499.0008 556.39989 3498.9004 280.29933 3498.9004 4.0996094 L 3367.9004 4.0996094 z M 572.30078 4.1992188 C 533.80082 4.2992186 495.19918 4.1007814 456.69922 4.3007812 C 456.79922 192.30059 456.69922 380.40058 456.69922 568.40039 C 456.79922 656.4003 456.40039 744.50009 456.90039 832.5 C 495.40035 832.2 533.90082 832.50039 572.30078 832.40039 L 572.30078 4.1992188 z M 598 4.1992188 C 598 49.399174 597.99961 94.700045 598.09961 140 C 597.49961 219.99992 600.30001 299.9993 607.5 379.69922 C 611.2 416.59918 615.30001 453.60004 625 489.5 C 635.49999 525.09996 649.00041 560.10003 667.40039 592.5 C 690.90037 634.09996 722.30082 670.79964 757.30078 703.09961 C 778.50076 722.59959 800.70002 741.30002 825 757 C 858.29997 778.69998 894.59965 795.59962 932.09961 808.59961 C 963.59958 819.2996 996.00003 827.80079 1029 832.30078 L 1029 708.5 C 1012.2 706 995.69998 702.00078 979.5 696.80078 C 921.60006 678.2008 868.30074 645.99996 824.30078 604 C 778.20083 560.20004 742.80076 505.69916 718.30078 447.19922 C 692.40081 386.69928 680.7996 321.30072 672.59961 256.30078 C 662.59962 172.70086 659.70039 88.399135 660.40039 4.1992188 C 639.60041 4.0992189 618.79998 4.1992188 598 4.1992188 z M 3726.9004 44 C 3762.9004 44 3801.3008 70.000826 3801.3008 114.30078 C 3801.3008 156.90074 3766.4996 185.5 3726.5996 185.5 L 3726.3008 185.5 C 3687.9008 185.5 3651.9004 158.29957 3651.9004 114.59961 C 3651.9004 69.999654 3690.3004 44 3726.9004 44 z M 2398.8008 192.19922 C 2428.8008 296.79911 2459.3004 401.3001 2489.4004 506 C 2429.0005 506 2368.4995 506.1 2308.0996 506 C 2338.1996 401.3001 2368.7008 296.79911 2398.8008 192.19922 z M 1485.1992 192.69922 C 1515.5992 297.09911 1545.7996 401.5001 1576.0996 506 C 1515.4997 506 1454.7995 506.20039 1394.0996 505.90039 C 1424.5996 401.5005 1454.5992 296.99911 1485.1992 192.69922 z M 3726.5996 251.30078 C 3664.5997 251.30078 3613.1992 299.99928 3613.1992 366.19922 C 3613.1992 426.99916 3658.4005 480.80078 3728.4004 480.80078 L 3728.6992 480.80078 C 3787.0992 480.80078 3840 433.49993 3840 366.5 C 3840 299.80007 3788.5995 251.30078 3726.5996 251.30078 z M 3726.9004 295.30078 C 3762.9004 295.30078 3801.3008 321.29965 3801.3008 365.59961 C 3801.3008 408.19957 3766.4996 436.80078 3726.5996 436.80078 L 3726.3008 436.80078 C 3687.9008 436.80078 3651.9004 409.60035 3651.9004 365.90039 C 3651.9004 321.30044 3690.3004 295.30078 3726.9004 295.30078 z M 3758.8008 498.30078 C 3710.7008 498.30078 3685 534.29925 3685 567.69922 C 3685 574.49921 3686.9992 582.69961 3688.1992 585.09961 C 3683.4992 581.79961 3679.3004 578.59961 3674.9004 575.59961 L 3617.3008 534.59961 L 3617.1992 534.59961 L 3617.1992 585.40039 L 3701.0996 642.69922 C 3717.0996 652.99921 3735.6992 662.5 3758.6992 662.5 C 3775.2992 662.5 3796.4996 657.49921 3811.5996 644.19922 C 3829.6996 630.29923 3840 606.70075 3840 579.80078 C 3840 534.90083 3806.0007 498.30078 3758.8008 498.30078 z M 3762.5996 542.19922 C 3784.4996 542.19922 3801.3008 559.29924 3801.3008 581.19922 C 3801.3008 601.2992 3785.8996 619 3762.5996 619 L 3762.3008 619 C 3738.4008 619 3723.5996 600.40037 3723.5996 580.90039 C 3723.5996 558.70041 3740.6996 542.19922 3762.5996 542.19922 z M 3798.5 683.09961 L 3798.5 771.40039 C 3781.7 753.90041 3765.0996 736.50037 3748.5996 719.40039 C 3724.0996 693.70042 3706.0992 684.49922 3680.6992 684.19922 C 3644.6993 684.19922 3613.0996 710.20005 3613.0996 756 C 3613.0996 771.59998 3617.8008 799.99963 3642.3008 817.09961 C 3658.5008 829.2996 3676.6004 831.9 3693.4004 832.5 L 3693.4004 790.30078 C 3671.0004 790.00078 3651.8008 781.20037 3651.8008 759.90039 C 3651.8008 741.90041 3662.9996 728.30078 3684.5996 728.30078 C 3709.6996 728.60078 3724.8 746.00041 3744 767.90039 C 3763.2 789.20037 3782.1008 810.39924 3801.3008 831.69922 L 3835.6992 831.69922 L 3835.6992 683.09961 L 3798.5 683.09961 z " /></g>
</svg>
